X: 34787
T: Road To Skye, The
R: jig
M: 6/8
K: Gmajor
GGG FGD|GBd e2f|gBB {c}BAB|cBc E2D|
GGG FGD|GBd e2f|gBB {c}BAB|1 cAF GBA:|2 cAF G2A||
GBd GBd|GBd cAF|GBd eag|{g}fdd def|
g3 f3|e3 d2B|cBc Adc|1 BGG G2A:|2 BGG G3||

